ix/microphone-2_bulk.svg

<svg viewBox="0 0 24 24" fill="none" xmlns="http://www.w3.org/2000/svg" height="1em" width="1em">
  <path opacity="0.4" d="M19.1197 9.11986C18.7297 9.11986 18.4197 9.42986 18.4197 9.81986V11.3999C18.4197 14.9399 15.5397 17.8199 11.9997 17.8199C8.45969 17.8199 5.57969 14.9399 5.57969 11.3999V9.80986C5.57969 9.41986 5.26969 9.10986 4.87969 9.10986C4.48969 9.10986 4.17969 9.41986 4.17969 9.80986V11.3899C4.17969 15.4599 7.30969 18.8099 11.2997 19.1699V21.2999C11.2997 21.6899 11.6097 21.9999 11.9997 21.9999C12.3897 21.9999 12.6997 21.6899 12.6997 21.2999V19.1699C16.6797 18.8199 19.8197 15.4599 19.8197 11.3899V9.80986C19.8097 9.42986 19.4997 9.11986 19.1197 9.11986Z" fill="#292D32"/>
  <path d="M12.0001 2C9.56008 2 7.58008 3.98 7.58008 6.42V11.54C7.58008 13.98 9.56008 15.96 12.0001 15.96C14.4401 15.96 16.4201 13.98 16.4201 11.54V6.42C16.4201 3.98 14.4401 2 12.0001 2ZM13.3101 8.95C13.2401 9.21 13.0101 9.38 12.7501 9.38C12.7001 9.38 12.6501 9.37 12.6001 9.36C12.2101 9.25 11.8001 9.25 11.4101 9.36C11.0901 9.45 10.7801 9.26 10.7001 8.95C10.6101 8.64 10.8001 8.32 11.1101 8.24C11.7001 8.08 12.3201 8.08 12.9101 8.24C13.2101 8.32 13.3901 8.64 13.3101 8.95ZM13.8401 7.01C13.7501 7.25 13.5301 7.39 13.2901 7.39C13.2201 7.39 13.1601 7.38 13.0901 7.36C12.3901 7.1 11.6101 7.1 10.9101 7.36C10.6101 7.47 10.2701 7.31 10.1601 7.01C10.0501 6.71 10.2101 6.37 10.5101 6.27C11.4701 5.92 12.5301 5.92 13.4901 6.27C13.7901 6.38 13.9501 6.71 13.8401 7.01Z" fill="#292D32"/>
</svg>

<svg viewBox="0 0 24 24" fill="none" xmlns="http://www.w3.org/2000/svg" height="1em" width="1em">
  <path opacity=".4" d="M19.12 9.12c-.39 0-.7.31-.7.7v1.58c0 3.54-2.88 6.42-6.42 6.42s-6.42-2.88-6.42-6.42V9.81c0-.39-.31-.7-.7-.7-.39 0-.7.31-.7.7v1.58c0 4.07 3.13 7.42 7.12 7.78v2.13c0 .39.31.7.7.7.39 0 .7-.31.7-.7v-2.13c3.98-.35 7.12-3.71 7.12-7.78V9.81a.707.707 0 0 0-.7-.69Z" fill="#292D32"/>
  <path d="M12 2C9.56 2 7.58 3.98 7.58 6.42v5.12c0 2.44 1.98 4.42 4.42 4.42s4.42-1.98 4.42-4.42V6.42C16.42 3.98 14.44 2 12 2Zm1.31 6.95c-.07.26-.3.43-.56.43-.05 0-.1-.01-.15-.02-.39-.11-.8-.11-1.19 0-.32.09-.63-.1-.71-.41-.09-.31.1-.63.41-.71.59-.16 1.21-.16 1.8 0 .3.08.48.4.4.71Zm.53-1.94a.58.58 0 0 1-.55.38c-.07 0-.13-.01-.2-.03-.7-.26-1.48-.26-2.18 0a.59.59 0 0 1-.75-.35c-.11-.3.05-.64.35-.74a4.36 4.36 0 0 1 2.98 0c.3.11.46.44.35.74Z" fill="#292D32"/>
</svg>
